X: 17
T: Farewell To Ireland
Z: Stiamh
S: https://thesession.org/tunes/33#setting46313
R: reel
M: 4/4
L: 1/8
K: Amix
|:A,3 C E2 EF|FEDB, G,B,DB,|A,3 C E2 AE|GEDG EA,A,G,|
A,3 C E2 EF|(3GFE DB, G,2 gf|edeg a3 f|1 gedg eA A2:|2 gedB eA Ae||
|:a3 b agef|g3 a gedg|eaaa agef|gedg eA A2|
agef g3e|d3B GABd|(3cBA dB ecAa|1 gedB BA Ae:|2 gedB BA Af||
|:eA (3cBA eA BA|dG (3GGG DGBd|eA (3cBA ecAa|gedB BA A2|
[1 eA (3cBA eA BA|[d3D3]B GABd|(3cBA dB ecAa|gedB BA Af:|
[2 e3f eA (3cBA|d3B GABd|(3cBA dB ecAa|gedB cA Ae||
|:aece aece|gdBd gdBd|aece aece|gedB BA Aa|
agef gage|d3B GABd|(3cBA dB ecAa|1 gedB cA Ae:|2 gedB eA A2||

